X: 38740
T: Strike The Gay Harp
R: jig
M: 6/8
K: Dmajor
d2B cBA|dAF FED|d2B cBA|dAF EFA|
def Bcd|ABA ~F2 E|DED DEF|AFE EFA:|
~d2d fdf|aba afe|~d2f afa|bge edB|
d2f afa|bgb a2f|fed def|dAF EFA:|
def def|dAF DFA|def def|dAF ~E2A|
def Bcd|ABA ~F2 E|DED DEF|AFE EFA:|

